app/dist/common/images/sterling-check.svg

<svg height="18" viewBox="0 0 18 18" width="18" xmlns="http://www.w3.org/2000/svg"><path d="m6.37 8.25c-1.02-.15-1.77-.32-1.77-1.04 0-.63.55-1.04 1.42-1.04.5-.03 1.34.29 1.48.83h1.47c-.27-1.33-1.37-2-2.9-2-1.76 0-2.94.94-2.94 2.31 0 1.7 1.63 1.95 2.73 2.1 1.1.17 2 .38 2 1.2 0 .7-.75 1.11-1.74 1.11-.48.02-1.44-.21-1.64-.72h-1.48c.32 1.35 1.5 2 3.1 2 1.88 0 3.06-1.06 3.06-2.54-.04-1.61-1.35-1.98-2.79-2.2zm5-.83h-1.37v-1.42h1.38v1.42zm2.26 3.58c0 .49-.55.7-1.08.67-.74 0-1.16-.53-1.16-1.23v-1.44h-1.39v1.48a2.44 2.44 0 0 0 2.54 2.52c1.5 0 2.2-.82 2.46-2h-1.38z" fill="#333f48"/><path d="m15 7.44v1.56h-1.45v-1.56zm-2.18 0h-1.45v1.56h1.45z" fill="#ff4700"/></svg>

<!-- by TradingView --><svg width="18" height="18" viewBox="0 0 18 18" xmlns="http://www.w3.org/2000/svg"><path d="M6.37 8.25C5.35 8.1 4.6 7.93 4.6 7.21c0-.63.55-1.04 1.42-1.04.5-.03 1.34.29 1.48.83h1.47C8.7 5.67 7.6 5 6.07 5c-1.76 0-2.94.94-2.94 2.31 0 1.7 1.63 1.95 2.73 2.1 1.1.17 2 .38 2 1.2 0 .7-.75 1.11-1.74 1.11-.48.02-1.44-.21-1.64-.72H3c.32 1.35 1.5 2 3.1 2 1.88 0 3.06-1.06 3.06-2.54-.04-1.61-1.35-1.98-2.79-2.2Zm5-.83H10V6h1.38v1.42ZM13.63 11c0 .49-.55.7-1.08.67-.74 0-1.16-.53-1.16-1.23V9H10v1.48A2.44 2.44 0 0 0 12.54 13c1.5 0 2.2-.82 2.46-2h-1.38Z" fill="#333F48"/><path d="M15 7.44V9h-1.45V7.44H15Zm-2.18 0h-1.45V9h1.45V7.44Z" fill="#FF4700"/></svg>
